X:1
T:Title
%%score 1 { ( 2 4 7 ) | ( 3 5 6 ) }
L:1/8
Q:1/4=90
M:4/4
K:A
V:1 treble nm="Akkordion"
V:2 treble nm="Grand Piano"
V:4 treble 
V:7 treble 
V:3 bass 
V:5 bass 
V:6 bass 
V:1
 z8 | z8 | z8 |[M:7/8] z7 |[M:1/4] E2 |[M:4/4] E3 E E>E E>E | EE z2 z2 E2 | E3 E E>E E>E | %8
 EE z2 z2 F2 | F3 F F>F F>F | GG z2 z2 G2 | A4- AcBA |[M:3/4] G4 z2 |[M:1/4] z2 |[M:4/4] z8 | z8 | %16
 E4 A3 G | B6 z2 | E4- EdcB | A6 z2 | z8 | z8 | z8 | z8 | A4 A3 F | E4 z4 | A4 A3 B | c8 | %28
 d4 z2 ^d2 | e4 e4 | A8 | z8 | z8 | z8 |[M:3/4] z6 |] %35
V:2
 [EAe]3 c AECE | z4 A4 | A3 A GA[DB]c |[M:7/8] [CEA]2 z2[K:bass] [E,G,B,DE]3 |[M:1/4] z2 | %5
w: Zundel * * * * *|||||
[M:4/4] [E,A,CE]6 [CE]2 | [G,DE]8 | [G,B,E]6 [G,B,E]2 | [E,A,E]6 z2 | [^A,EF]8 | [CDG]8 | %11
w: ||||||
 [CEA]6[K:bass][K:treble] z2 |[M:3/4] G4[K:bass] z2 |[M:1/4] B,2 |[M:4/4] C6 z2 | [E,G,B,]2 z2 z4 | %16
w: |||||
 [A,CE]2 z2 [A,CE]2 z2 | [G,B,D]2 z2 [G,B,D]2 z2 | [G,B,D]2 z2 [G,B,D]2 E,2 | C2 E,2 C2 E,2 | %20
w: ||||
 [Ec]4 c3 A | [Fd]6[K:bass][K:treble] z2 | [CA]2 GA [DB]dcB | A2 z2 z4 | [DFA]2 A,2 [DFA]2 A,2 | %25
w: |||||
 [CA]4 [CA]3 [CE] | F4 z4 | [Ec]4 c3 A | z4 A4 | A4 G4 | [CA]8 | B3 c defg | bae^e gf^AB | %33
w: ||||||||
 fecA E^EFG |[M:3/4] A2 [Ec]2 [CA]2 |] %35
w: ||
V:3
 [C,A,C]6 [C,E,A,]2 | A,3 B, C2 [^E,B,]2 | C3 C B,C z E |[M:7/8] A,2 z2 E,,3 |[M:1/4] z2 | %5
[M:4/4] z4 z2 A,2 | B,,8 | [D,,D,]8 | [C,,C,]6 z2 | [C,,C,]4 [=C,,=C,]4 | [B,,,B,,]4 [^A,,,^A,,]4 | %11
 [A,,,A,,]2 C,,2 z EDC |[M:3/4] B,4 z2 |[M:1/4] [E,G,]2 |[M:4/4] A,4- A,C z A, | E,,2 E2 E2 E2 | %16
 z2 E,2 z2 E,2 | z2 E,2 z2 E,2 | z2 E,2 E,,4 | A,2 z2 A,2 z2 | [A,,A,]4 [A,E]3 [A,C] | %21
 [D,A,]4 z2 [C,E,][D,F,] | E,2- [E,-B,][E,C] z[K:treble] FED | z2[K:treble] A2 A2 A2 | %24
 [D,,D,]4 [D,,D,]4 | [A,,A,]4 [A,,A,]3 [A,,A,] | A,2 z2 D2 z2 | [A,,A,]4 [=G,A,E]3 [G,A,E] | %28
 [F,A,D]4 B,4- | [E,B,-CE]4 [E,B,D]4 | [A,,A,]8 | [DEG]8 | [CEA]2 z2 [DF]4 | [E,A,C]4 [E,B,D]4 | %34
[M:3/4] [A,C]2 [A,,E,A,]2 [A,,E,A,]2 |] %35
V:4
 x8 | F3/2-(3:2:4F/8G/8-[FG]/4-[^EFG]/4FG z2 ^D2 | x8 |[M:7/8] x4[K:bass] x3 |[M:1/4] x2 | %5
[M:4/4] x8 | x8 | x8 | x8 | x8 | x8 | z2[K:bass] C,2[K:treble] z cBA |[M:3/4] z2[K:bass] E,2 E,2 | %13
[M:1/4] x2 |[M:4/4] z2 E,,2 z E[B,D]C | x8 | x8 | x8 | x8 | x8 | x8 | %21
 z4[K:bass] [B,,D,]2[K:treble] [Ec][DB] | x8 | [A,C]4 z4 | x8 | x8 | z2 A,2 F2 A,2 | x8 | %28
 d4 z2 =C2 | x8 | x8 | x8 | x8 | x8 |[M:3/4] x6 |] %35
V:5
 x8 | [D,D]6 z2 | [E,E]4 [E,E-]2 E2 |[M:7/8] x7 |[M:1/4] x2 |[M:4/4] A,,8 | x8 | x8 | x8 | x8 | %10
 x8 | z4 E,,4- |[M:3/4] E,,6 |[M:1/4] x2 |[M:4/4] E,6 [E,,E,]2 | x8 | A,,4 A,,4 | E,,4 E,,4 | %18
 E,,4 z4 | A,,4 A,,4 | x8 | x8 | z4 G,4[K:treble] | A,,4[K:treble] z4 | x8 | x8 | D,4 D,4 | x8 | %28
 z4 [^E,^D]4 | x8 | x8 | x8 | x8 | x8 |[M:3/4] x6 |] %35
V:6
 x8 | x8 | z4 z2 E,2 |[M:7/8] x7 |[M:1/4] x2 |[M:4/4] x8 | x8 | x8 | x8 | x8 | x8 | x8 | %12
[M:3/4] x6 |[M:1/4] x2 |[M:4/4] x8 | x8 | x8 | x8 | x8 | x8 | x8 | x8 | E,,8[K:treble] | %23
 x2[K:treble] x6 | x8 | x8 | x8 | x8 | x8 | x8 | x8 | x8 | x8 | x8 |[M:3/4] x6 |] %35
V:7
 x8 | x8 | x8 |[M:7/8] x4[K:bass] x3 |[M:1/4] x2 |[M:4/4] x8 | x8 | x8 | x8 | x8 | x8 | %11
 z4[K:bass][K:treble] E,4- |[M:3/4] E,2[K:bass] z2 z2 |[M:1/4] x2 |[M:4/4] z4 E,,2 z2 | x8 | x8 | %17
 x8 | x8 | x8 | x8 | x4[K:bass] x2[K:treble] x2 | x8 | x8 | x8 | x8 | x8 | x8 | x8 | x8 | x8 | x8 | %32
 x8 | x8 |[M:3/4] x6 |] %35

